static/characters/chotto_toorimasu_yo/back-sitting.svg

<?xml version="1.0" encoding="UTF-8" standalone="no"?>
<svg
   xmlns:dc="http://purl.org/dc/elements/1.1/"
   xmlns:cc="http://creativecommons.org/ns#"
   xmlns:rdf="http://www.w3.org/1999/02/22-rdf-syntax-ns#"
   xmlns:svg="http://www.w3.org/2000/svg"
   xmlns="http://www.w3.org/2000/svg"
   xmlns:sodipodi="http://sodipodi.sourceforge.net/DTD/sodipodi-0.dtd"
   xmlns:inkscape="http://www.inkscape.org/namespaces/inkscape"
   height="182"
   width="160"
   viewBox="0 0 160 182"
   version="1.1"
   xml:space="preserve"
   style="fill-rule:evenodd;clip-rule:evenodd;stroke-linejoin:round;stroke-miterlimit:1.5;"
   id="svg937"
   sodipodi:docname="back-sitting.svg"
   inkscape:version="1.0.2-2 (e86c870879, 2021-01-15)"><metadata
   id="metadata943"><rdf:RDF><cc:Work
       rdf:about=""><dc:format>image/svg+xml</dc:format><dc:type
         rdf:resource="http://purl.org/dc/dcmitype/StillImage" /></cc:Work></rdf:RDF></metadata><defs
   id="defs941" /><sodipodi:namedview
   pagecolor="#ffffff"
   bordercolor="#666666"
   borderopacity="1"
   objecttolerance="10"
   gridtolerance="10"
   guidetolerance="10"
   inkscape:pageopacity="0"
   inkscape:pageshadow="2"
   inkscape:window-width="1920"
   inkscape:window-height="996"
   id="namedview939"
   showgrid="false"
   inkscape:zoom="3.2208325"
   inkscape:cx="70.305704"
   inkscape:cy="101.77605"
   inkscape:window-x="-8"
   inkscape:window-y="-8"
   inkscape:window-maximized="1"
   inkscape:current-layer="svg937" />
    <g
   transform="translate(2.3681315,-3.3442693)"
   id="g935">
        <g
   transform="matrix(0.932402,-0.296045,0.303872,0.957052,-36.4888,21.0449)"
   id="g917">
            <path
   d="m 100.695,128.644 c 10.244,-2.018 10.125,4.086 3.847,9.25 -4.152,3.416 -13.506,2.021 -22.919,-1.643 -5.425,-2.112 -17.495,-4.794 -26.025,-19.687 -3.766,-6.575 1.786,-13.059 5.25,-25.684 1.182,-4.308 8.908,-16.296 11.888,-18.537 29.648,-26.763 53.469,0.646 49.156,19.899 -1.348,7.379 -22.191,25.509 -24.348,31.44 -0.152,0.417 -0.673,5.715 3.151,4.962 z"
   style="fill:#ffffff"
   id="path915" />
        </g>
        <g
   transform="rotate(-16.264557,56.882954,140.95401)"
   id="g921">
            <path
   d="m 66.35,79.808 c 0.71,-1.167 4.703,-6.241 5.558,-7.16 31.132,-33.474 62.691,5.579 48.015,22.127 -0.336,0.379 -1.774,3.02 -4.632,5.896 -5.093,5.127 -12.137,13.146 -15.455,19.231 -3.175,5.821 -2.017,8.568 -0.137,9.176"
   style="fill:none;stroke:#000000;stroke-width:2.5px"
   id="path919" />
        </g>
        <g
   transform="translate(-0.837138,5.57892)"
   id="g925">
            <path
   d="m 101.326,118.282 c 9.676,-7.488 2.928,-15.621 -4.167,-9.616"
   style="fill:none;stroke:#000000;stroke-width:2.5px"
   id="path923" />
        </g>
        <g
   transform="matrix(1.09645,-0.283864,0.256392,0.990334,-38.6075,21.0388)"
   id="g929">
            <path
   d="m 55.65,96.952 c -9.552,24.874 25.219,36.399 38.528,34.982"
   style="fill:none;stroke:#000000;stroke-width:2.32px"
   id="path927" />
        </g>
        <g
   transform="matrix(0.0233426,-0.999728,0.984869,-0.298061,-35.199,143.588)"
   id="g933">
            <path
   d="M 37.692,83.033 C 32.689,81.863 26.316,81.432 19.746,82.475 l -0.8,2.452 c 2.958,-0.273 6.142,-0.499 9.234,-0.423 3.013,0.074 5.879,0.611 8.756,0.846 z"
   id="path931" />
        </g>
    </g>
</svg>

<?xml version="1.0" encoding="UTF-8" standalone="no"?>
<!DOCTYPE svg PUBLIC "-//W3C//DTD SVG 1.1//EN" "http://www.w3.org/Graphics/SVG/1.1/DTD/svg11.dtd">
<svg height="182" width="160" viewBox="0 0 160 182" version="1.1" xmlns="http://www.w3.org/2000/svg" xmlns:xlink="http://www.w3.org/1999/xlink" xml:space="preserve" xmlns:serif="http://www.serif.com/" style="fill-rule:evenodd;clip-rule:evenodd;stroke-linejoin:round;stroke-miterlimit:1.5;">
    <g transform="matrix(1,0,0,1,2.368,6.656)">
        <g transform="matrix(0.932402,-0.296045,0.303872,0.957052,-36.4888,21.0449)">
            <path d="M100.695,128.644C110.939,126.626 110.82,132.73 104.542,137.894C100.39,141.31 91.036,139.915 81.623,136.251C76.198,134.139 64.128,131.457 55.598,116.564C51.832,109.989 57.384,103.505 60.848,90.88C62.03,86.572 69.756,74.584 72.736,72.343C102.384,45.58 126.205,72.989 121.892,92.242C120.544,99.621 99.701,117.751 97.544,123.682C97.392,124.099 96.871,129.397 100.695,128.644Z" style="fill:white;"/>
        </g>
        <g transform="matrix(0.959979,-0.280073,0.280073,0.959979,-37.2009,21.5725)">
            <path d="M66.35,79.808C67.06,78.641 71.053,73.567 71.908,72.648C103.04,39.174 134.599,78.227 119.923,94.775C119.587,95.154 118.149,97.795 115.291,100.671C110.198,105.798 103.154,113.817 99.836,119.902C96.661,125.723 97.819,128.47 99.699,129.078" style="fill:none;stroke:black;stroke-width:2.5px;"/>
        </g>
        <g transform="matrix(1,0,0,1,-0.837138,5.57892)">
            <path d="M101.326,118.282C111.002,110.794 104.254,102.661 97.159,108.666" style="fill:none;stroke:black;stroke-width:2.5px;"/>
        </g>
        <g transform="matrix(1.09645,-0.283864,0.256392,0.990334,-38.6075,21.0388)">
            <path d="M55.65,96.952C46.098,121.826 80.869,133.351 94.178,131.934" style="fill:none;stroke:black;stroke-width:2.32px;"/>
        </g>
        <g transform="matrix(0.0233426,-0.999728,0.984869,-0.298061,-35.199,143.588)">
            <path d="M37.692,83.033C32.689,81.863 26.316,81.432 19.746,82.475L18.946,84.927C21.904,84.654 25.088,84.428 28.18,84.504C31.193,84.578 34.059,85.115 36.936,85.35L37.692,83.033Z"/>
        </g>
    </g>
</svg>
